.icons/Gruvbox-Plus-Dark/apps/16/bluejeans.svg

<svg width="16" height="16" version="1.1" xmlns="http://www.w3.org/2000/svg">
  <defs>
    <style type="text/css" id="current-color-scheme">.ColorScheme-Text { color:#ebdbb2; } .ColorScheme-Highlight { color:#458588; }</style>
  </defs>
  <path class="ColorScheme-Text" fill="currentColor" d="m13.52 4.222v-1.393c0-0.879-0.713-1.592-1.591-1.592h-10.34c-0.878 0-1.591 0.713-1.591 1.592v10.34c0 0.878 0.713 1.591 1.591 1.591h10.34c0.878 0 1.591-0.713 1.591-1.591v-1.394l2.475 1.945v-11.44zm-5.611 2.951h-3.269v-2.065h3.269c0.462 0 0.86 0.575 0.86 1.033 0 0.457-0.398 1.037-0.86 1.032zm-3.269 1.548v2.065h3.269c0.462 5e-3 0.86-0.575 0.86-1.033 0-0.457-0.398-1.032-0.86-1.032h-3.269zm4.912-0.774c0.48 0.465 0.766 1.129 0.766 1.806 0 1.316-1.079 2.581-2.409 2.581h-4.817v-8.774h4.817c1.33 0 2.409 1.265 2.409 2.581 0 0.677-0.286 1.341-0.766 1.806z"/>
</svg>

<svg xmlns="http://www.w3.org/2000/svg" style="isolation:isolate" width="16" height="16" viewBox="0 0 16 16">
 <defs>
  <style id="current-color-scheme" type="text/css">
   .ColorScheme-Text { color:#ebdbb2; } .ColorScheme-Highlight { color:#458588; }
  </style>
  <linearGradient id="arrongin" x1="0%" x2="0%" y1="0%" y2="100%">
   <stop offset="0%" style="stop-color:#d79921; stop-opacity:1"/>
   <stop offset="100%" style="stop-color:#b57614; stop-opacity:1"/>
  </linearGradient>
  <linearGradient id="aurora" x1="0%" x2="0%" y1="0%" y2="100%">
   <stop offset="0%" style="stop-color:#83a598; stop-opacity:1"/>
   <stop offset="100%" style="stop-color:#b16286; stop-opacity:1"/>
  </linearGradient>
  <linearGradient id="fitdance" x1="0%" x2="0%" y1="0%" y2="100%">
   <stop offset="0%" style="stop-color:#8ec07c; stop-opacity:1"/>
   <stop offset="100%" style="stop-color:#458588; stop-opacity:1"/>
  </linearGradient>
  <linearGradient id="oomox" x1="0%" x2="0%" y1="0%" y2="100%">
   <stop offset="0%" style="stop-color:#458588; stop-opacity:1"/>
   <stop offset="100%" style="stop-color:#928374; stop-opacity:1"/>
  </linearGradient>
  <linearGradient id="rainblue" x1="0%" x2="0%" y1="0%" y2="100%">
   <stop offset="0%" style="stop-color:#b8bb26; stop-opacity:1"/>
   <stop offset="100%" style="stop-color:#076678; stop-opacity:1"/>
  </linearGradient>
  <linearGradient id="sunrise" x1="0%" x2="0%" y1="0%" y2="100%">
   <stop offset="0%" style="stop-color: #fe8019; stop-opacity:1"/>
   <stop offset="100%" style="stop-color: #fabd2f; stop-opacity:1"/>
  </linearGradient>
  <linearGradient id="telinkrin" x1="0%" x2="0%" y1="0%" y2="100%">
   <stop offset="0%" style="stop-color: #83a598; stop-opacity:1"/>
   <stop offset="100%" style="stop-color: #83a598; stop-opacity:1"/>
  </linearGradient>
  <linearGradient id="60spsycho" x1="0%" x2="0%" y1="0%" y2="100%">
   <stop offset="0%" style="stop-color: #fb4934; stop-opacity:1"/>
   <stop offset="25%" style="stop-color: #fabd2f; stop-opacity:1"/>
   <stop offset="50%" style="stop-color: #fe8019; stop-opacity:1"/>
   <stop offset="100%" style="stop-color: #689d6a; stop-opacity:1"/>
  </linearGradient>
  <linearGradient id="90ssummer" x1="0%" x2="0%" y1="0%" y2="100%">
   <stop offset="0%" style="stop-color: #b16286; stop-opacity:1"/>
   <stop offset="20%" style="stop-color: #8ec07c; stop-opacity:1"/>
   <stop offset="50%" style="stop-color: #fabd2f; stop-opacity:1"/>
   <stop offset="100%" style="stop-color: #458588; stop-opacity:1"/>
  </linearGradient>
  <linearGradient id="cyberneon" x1="0%" x2="0%" y1="0%" y2="100%">
    <stop offset="0" style="stop-color:#83a598; stop-opacity:1"/>
    <stop offset="1" style="stop-color:#b16286; stop-opacity:1"/>
  </linearGradient>
 </defs>
 <path style="fill:currentColor" class="ColorScheme-Text" fill-rule="evenodd" d="M 13.525 4.275 L 13.525 2.882 C 13.525 2.003 12.812 1.29 11.934 1.29 L 1.591 1.29 C 0.713 1.29 0 2.003 0 2.882 L 0 13.224 C 0 14.102 0.713 14.815 1.591 14.815 L 11.934 14.815 C 12.812 14.815 13.525 14.102 13.525 13.224 L 13.525 11.83 L 16 13.775 L 16 2.331 L 13.525 4.275 Z M 7.914 7.226 L 7.914 7.226 L 4.645 7.226 L 4.645 5.161 L 4.645 5.161 L 7.914 5.161 C 8.376 5.161 8.774 5.736 8.774 6.194 C 8.774 6.651 8.376 7.231 7.914 7.226 L 7.914 7.226 L 7.914 7.226 Z M 4.645 8.774 L 4.645 8.774 L 4.645 10.839 L 7.914 10.839 C 8.376 10.844 8.774 10.264 8.774 9.806 C 8.774 9.349 8.376 8.774 7.914 8.774 L 7.914 8.774 L 7.914 8.774 L 4.645 8.774 L 4.645 8.774 L 4.645 8.774 Z M 9.557 8 C 10.037 8.465 10.323 9.129 10.323 9.806 C 10.323 11.122 9.244 12.387 7.914 12.387 L 3.097 12.387 L 3.097 8.774 L 3.097 7.226 L 3.097 7.226 L 3.097 7.226 L 3.097 3.613 L 3.097 3.613 L 7.914 3.613 C 9.244 3.613 10.323 4.878 10.323 6.194 C 10.323 6.871 10.037 7.535 9.557 8 L 9.557 8 L 9.557 8 Z"/>
</svg>
